src/pages/headings/UnserStudio.svg

<svg viewBox="0 0 395 53" fill="none" xmlns="http://www.w3.org/2000/svg">
    <path d="M8.95999 52.1599C3.77599 52.1599 -9.05991e-06 48.2559 -9.05991e-06 43.3279C-9.05991e-06 30.6559 18.56 13.6319 18.56 5.11995C18.56 3.26395 17.536 1.34395 14.912 1.34395C12.544 1.34395 9.40799 2.94395 7.03999 5.11995L6.52799 4.54395C9.59999 1.91995 13.184 -5.34058e-05 16.384 -5.34058e-05C20.736 -5.34058e-05 22.08 3.26395 22.08 5.69595C22.08 13.6319 4.03199 31.6799 4.03199 42.6239C4.03199 47.2319 6.78399 49.7279 10.816 49.7279C18.368 49.7279 28.416 39.3599 38.272 26.6239C44.288 15.9359 51.008 4.86395 53.568 0.831947C53.76 0.575947 54.016 0.447948 54.336 0.447948H56.704C57.216 0.447948 57.408 0.767948 57.152 1.21595C52.288 8.95995 40.832 28.0959 36.48 37.1839C34.112 42.1759 33.024 45.1839 33.024 46.6559C33.024 48.2559 33.856 48.9599 34.944 48.9599C36.352 48.9599 38.4 48.1919 41.536 45.4399L41.984 46.0799C38.016 49.4719 34.048 52.0959 32.128 52.0959C29.632 52.0959 28.736 50.1119 28.736 48.3839C28.736 46.0159 29.568 43.0079 31.872 38.4639L35.776 31.1679C23.36 46.6559 14.848 52.1599 8.95999 52.1599ZM46.1325 51.6479C45.6845 51.6479 45.4925 51.3279 45.7485 50.8799C49.5245 44.2239 58.6125 28.0319 58.6125 23.9999C58.6125 22.9119 57.9725 22.2079 56.8845 22.2079C55.4765 22.2079 53.5565 23.1039 50.4205 25.8559L49.9725 25.2159C53.9405 21.8239 57.9085 19.1999 59.9565 19.1999C62.1965 19.1999 62.9645 21.0559 62.9645 22.5279C62.9645 24.8959 59.1245 32.8319 55.5405 39.8719C58.6765 35.7759 62.1965 31.8719 65.7165 28.5439C71.4765 22.9759 76.9805 19.1999 79.9885 19.1999C82.3565 19.1999 82.9965 21.0559 82.9965 22.3999C82.9965 27.9679 71.2845 42.4319 71.2845 47.6159C71.2845 48.7039 71.9885 49.2799 73.0765 49.2799C74.4845 49.2799 76.4045 48.1919 79.5405 45.4399L79.9885 46.0799C76.0205 49.5999 72.0525 52.0959 70.1325 52.0959C67.7645 52.0959 66.9965 50.2399 66.9965 48.8319C66.9965 42.8799 78.8365 28.4799 78.8365 23.7439C78.8365 22.7839 78.3245 21.9519 76.9805 21.9519C74.4205 21.9519 70.7085 24.8319 66.1645 29.1199C61.6845 33.3439 56.7565 39.0399 52.9805 44.6079C51.2525 47.8079 49.8445 50.3039 49.2685 51.1999C49.0765 51.5199 48.8205 51.6479 48.5005 51.6479H46.1325ZM87.2655 52.0959C83.9375 52.0959 80.7375 50.8799 80.9295 47.5519C80.9935 46.2079 81.8255 44.4799 84.9615 42.1119L85.3455 42.4319C84.8975 43.2639 84.6415 44.2239 84.6415 45.1199C84.6415 47.8079 86.6255 50.4319 90.9775 50.4319C94.9455 50.4319 98.5295 47.8719 98.5295 43.7759C98.5295 38.6559 92.3215 32.8319 92.7055 27.8399C93.1535 22.3999 100.193 19.1999 106.081 19.1999C108.769 19.1999 111.969 19.9679 111.969 21.0559C111.969 22.3999 110.049 23.7439 108.641 23.7439C106.721 23.7439 104.801 22.9119 100.257 20.9279C97.1215 22.0159 95.7775 23.4879 95.5855 25.2159C95.0735 30.5919 101.729 35.7759 101.473 41.7279C101.153 47.7439 94.6255 52.0959 87.2655 52.0959ZM114.695 52.0959C109.959 52.0959 107.399 49.0879 107.399 44.7359C107.399 33.2159 121.735 19.0719 131.527 19.0719C134.791 19.0719 136.583 20.3519 136.583 22.5279C136.583 26.3679 131.527 31.4879 111.751 43.8399C111.943 46.7839 113.479 49.3439 117.639 49.3439C119.623 49.3439 123.399 48.6399 128.583 44.0319L129.031 44.5439C123.079 50.2399 117.703 52.0959 114.695 52.0959ZM111.751 43.0719C125.063 34.7519 132.167 29.5679 132.167 24.3199C132.167 22.0159 130.311 21.2479 128.519 21.2479C118.855 21.2479 111.815 34.6239 111.751 43.0719ZM134.57 51.6479C134.122 51.6479 133.93 51.3279 134.186 50.8799C137.962 44.2239 147.05 28.0319 147.05 23.9999C147.05 22.9119 146.41 22.2079 145.322 22.2079C143.914 22.2079 141.994 23.1039 138.858 25.8559L138.41 25.2159C142.378 21.8239 146.346 19.1999 148.394 19.1999C150.634 19.1999 151.402 21.0559 151.402 22.5279C151.402 23.9359 150.058 27.3919 148.138 31.3599C152.49 24.7679 158.058 19.1999 166.314 19.1999C167.978 19.1999 169.322 19.4559 169.322 20.2879C169.322 21.8239 167.146 23.9999 164.97 23.9999C162.986 23.9999 160.618 23.7439 157.29 22.7199C153.13 25.0239 148.458 31.6159 144.682 38.3999C141.674 44.2879 138.602 49.7919 137.706 51.1999C137.514 51.5199 137.258 51.6479 136.938 51.6479H134.57ZM183.917 44.3519C187.885 44.3519 190.125 42.6239 190.125 40.1279C190.125 37.3119 188.333 36.0319 180.077 33.5999C169.837 30.6559 166.317 26.6239 166.317 20.2239C166.317 13.3759 171.309 7.48795 182.509 7.48795C188.077 7.48795 194.093 9.34395 198.317 11.7119C199.149 12.2239 199.149 12.7359 198.893 13.3119L196.397 18.7519C195.949 19.6479 195.565 19.9679 194.413 19.3919C191.277 17.5999 186.541 15.4239 182.125 15.4239C177.517 15.4239 175.981 17.2159 175.981 19.3279C175.981 22.0799 178.157 23.0399 186.157 25.4719C194.925 28.1599 199.789 31.4239 199.789 39.0399C199.789 47.2319 193.325 52.2879 183.725 52.2879C176.365 52.2879 171.053 50.6239 166.381 48.1279C165.421 47.6159 165.293 47.1039 165.741 46.2719L168.301 40.8319C168.685 40.0639 169.133 39.8719 169.901 40.3199C174.701 42.6879 178.733 44.3519 183.917 44.3519ZM216.611 50.6239V15.8079H203.299C202.659 15.8079 202.275 15.3599 202.275 14.7839V9.21595C202.275 8.51195 202.659 8.12795 203.299 8.12795H239.139C239.779 8.12795 240.227 8.51195 240.227 9.21595V14.7839C240.227 15.3599 239.779 15.8079 239.139 15.8079H225.827V50.6239C225.827 51.1999 225.379 51.6479 224.739 51.6479H217.699C217.059 51.6479 216.611 51.1999 216.611 50.6239ZM244.968 34.6239V9.15195C244.968 8.57595 245.416 8.12795 246.056 8.12795H253.096C253.8 8.12795 254.184 8.57595 254.184 9.15195V34.7519C254.184 41.0239 257.832 44.3519 263.272 44.3519C268.712 44.3519 272.296 41.0239 272.296 34.7519V9.15195C272.296 8.57595 272.744 8.12795 273.384 8.12795H280.424C281.128 8.12795 281.512 8.57595 281.512 9.15195V34.6239C281.512 45.5039 274.344 52.2879 263.272 52.2879C252.2 52.2879 244.968 45.5039 244.968 34.6239ZM290.05 50.6239V9.15195C290.05 8.57595 290.562 8.12795 291.138 8.12795H305.026C319.106 8.12795 328.578 16.5119 328.578 29.8879C328.578 43.1359 319.106 51.6479 305.09 51.6479H291.138C290.562 51.6479 290.05 51.1999 290.05 50.6239ZM304.962 15.8079H299.266V43.9679H304.898C313.282 43.9679 318.85 38.3359 318.85 29.8879C318.85 21.4399 313.282 15.8079 304.962 15.8079ZM335.425 50.6239V9.15195C335.425 8.57595 335.937 8.12795 336.513 8.12795H343.553C344.257 8.12795 344.641 8.57595 344.641 9.15195V50.6239C344.641 51.1999 344.257 51.6479 343.553 51.6479H336.513C335.937 51.6479 335.425 51.1999 335.425 50.6239ZM373.378 52.2879C360.386 52.2879 351.746 43.6479 351.746 29.8879C351.746 16.1279 360.386 7.48795 373.378 7.48795C386.306 7.48795 394.946 16.1279 394.946 29.8879C394.946 43.6479 386.306 52.2879 373.378 52.2879ZM373.378 44.3519C380.546 44.3519 385.282 38.5919 385.282 29.8879C385.282 21.1839 380.546 15.4239 373.378 15.4239C366.21 15.4239 361.474 21.1839 361.474 29.8879C361.474 38.5919 366.21 44.3519 373.378 44.3519Z" fill="#EDE9E4"/>
</svg>

<svg xmlns="http://www.w3.org/2000/svg" width="395" height="53" fill="none"><path fill="#ede9e4" d="M8.96 52.16A8.7 8.7 0 0 1 0 43.33c0-12.67 18.56-29.7 18.56-38.21 0-1.86-1.02-3.78-3.65-3.78-2.37 0-5.5 1.6-7.87 3.78l-.51-.58C9.6 1.92 13.18 0 16.38 0c4.36 0 5.7 3.26 5.7 5.7 0 7.93-18.05 25.98-18.05 36.92 0 4.61 2.75 7.1 6.79 7.1 7.55 0 17.6-10.36 27.45-23.1A684 684 0 0 1 53.57.83q.29-.38.77-.38h2.36c.52 0 .7.32.45.77C52.3 8.96 40.83 28.1 36.48 37.18c-2.37 5-3.46 8-3.46 9.48 0 1.6.84 2.3 1.92 2.3 1.41 0 3.46-.77 6.6-3.52l.44.64c-3.96 3.4-7.93 6.02-9.85 6.02-2.5 0-3.4-1.99-3.4-3.72 0-2.36.84-5.37 3.14-9.92l3.9-7.3c-12.41 15.5-20.92 21-26.81 21m37.17-.51c-.45 0-.64-.32-.38-.77C49.52 44.22 58.6 28.03 58.6 24c0-1.09-.64-1.8-1.73-1.8-1.4 0-3.32.9-6.46 3.66l-.45-.64c3.97-3.4 7.94-6.02 9.99-6.02 2.24 0 3 1.86 3 3.33 0 2.37-3.84 10.3-7.42 17.34 3.14-4.1 6.66-8 10.18-11.33 5.76-5.56 11.26-9.34 14.27-9.34 2.37 0 3 1.86 3 3.2 0 5.57-11.7 20.03-11.7 25.22 0 1.08.7 1.66 1.79 1.66 1.4 0 3.32-1.09 6.46-3.84l.45.64c-3.97 3.52-7.94 6.02-9.86 6.02-2.37 0-3.13-1.86-3.13-3.27 0-5.95 11.84-20.35 11.84-25.09 0-.96-.52-1.79-1.86-1.79-2.56 0-6.27 2.88-10.82 7.17a98 98 0 0 0-13.18 15.49c-1.73 3.2-3.14 5.7-3.71 6.59a.8.8 0 0 1-.77.45zm41.14.45c-3.33 0-6.53-1.22-6.34-4.55.06-1.34.9-3.07 4.03-5.44l.39.32a6 6 0 0 0-.7 2.69c0 2.69 1.98 5.31 6.33 5.31 3.97 0 7.55-2.56 7.55-6.65 0-5.12-6.2-10.95-5.82-15.94.44-5.44 7.48-8.64 13.37-8.64 2.69 0 5.89.77 5.89 1.86 0 1.34-1.92 2.68-3.33 2.68-1.92 0-3.84-.83-8.38-2.81-3.14 1.09-4.48 2.56-4.67 4.29-.52 5.37 6.14 10.56 5.88 16.5-.32 6.02-6.84 10.38-14.2 10.38m27.42 0c-4.73 0-7.3-3.01-7.3-7.36 0-11.52 14.35-25.67 24.14-25.67 3.26 0 5.05 1.28 5.05 3.46 0 3.84-5.05 8.96-24.83 21.31.2 2.94 1.73 5.5 5.89 5.5 1.98 0 5.76-.7 10.94-5.3l.45.5c-5.95 5.7-11.33 7.56-14.34 7.56m-2.94-9.03c13.31-8.32 20.42-13.5 20.42-18.75 0-2.3-1.86-3.07-3.65-3.07-9.67 0-16.7 13.37-16.77 21.82m22.82 8.58c-.45 0-.64-.32-.38-.77 3.77-6.66 12.86-22.85 12.86-26.88 0-1.09-.64-1.8-1.73-1.8-1.4 0-3.33.9-6.46 3.66l-.45-.64c3.97-3.4 7.94-6.02 9.98-6.02 2.24 0 3.01 1.86 3.01 3.33 0 1.4-1.34 4.86-3.26 8.83 4.35-6.6 9.92-12.16 18.17-12.16 1.67 0 3.01.26 3.01 1.09 0 1.53-2.17 3.71-4.35 3.71-1.98 0-4.35-.26-7.68-1.28-4.16 2.3-8.83 8.9-12.6 15.68-3.02 5.89-6.09 11.4-6.98 12.8a.8.8 0 0 1-.77.45zm49.35-7.3c3.97 0 6.2-1.73 6.2-4.22 0-2.82-1.79-4.1-10.04-6.53-10.24-2.94-13.76-6.98-13.76-13.38 0-6.84 4.99-12.73 16.19-12.73 5.57 0 11.58 1.85 15.8 4.22.84.51.84 1.03.58 1.6l-2.5 5.44c-.44.9-.82 1.22-1.98.64-3.13-1.79-7.87-3.97-12.28-3.97-4.61 0-6.15 1.8-6.15 3.9 0 2.76 2.18 3.72 10.18 6.15 8.77 2.69 13.63 5.95 13.63 13.57 0 8.2-6.47 13.25-16.06 13.25-7.36 0-12.68-1.67-17.35-4.16-.96-.51-1.09-1.03-.64-1.86l2.56-5.44c.38-.77.83-.96 1.6-.51 4.8 2.37 8.83 4.03 14.02 4.03m32.7 6.27V15.81H203.3c-.64 0-1.03-.45-1.03-1.03V9.22c0-.7.39-1.1 1.03-1.1h35.84c.64 0 1.09.4 1.09 1.1v5.56c0 .58-.45 1.03-1.1 1.03h-13.3v34.81c0 .58-.45 1.03-1.1 1.03h-7.03c-.64 0-1.09-.45-1.09-1.03m28.35-16V9.15c0-.57.45-1.02 1.09-1.02h7.04c.7 0 1.08.45 1.08 1.02v25.6c0 6.27 3.65 9.6 9.1 9.6 5.43 0 9.02-3.33 9.02-9.6V9.15c0-.57.44-1.02 1.08-1.02h7.04c.7 0 1.1.45 1.1 1.02v25.47c0 10.88-7.18 17.67-18.25 17.67s-18.3-6.79-18.3-17.67m45.08 16V9.15c0-.57.51-1.02 1.09-1.02h13.89c14.08 0 23.55 8.38 23.55 21.76 0 13.25-9.47 21.76-23.49 21.76h-13.95c-.58 0-1.09-.45-1.09-1.03m14.91-34.81h-5.7v28.16h5.64c8.38 0 13.95-5.63 13.95-14.08s-5.57-14.08-13.89-14.08m30.47 34.81V9.15c0-.57.5-1.02 1.08-1.02h7.04c.7 0 1.1.45 1.1 1.02v41.47c0 .58-.4 1.03-1.1 1.03h-7.04c-.57 0-1.08-.45-1.08-1.03m37.95 1.67c-13 0-21.63-8.64-21.63-22.4s8.64-22.4 21.63-22.4c12.93 0 21.57 8.64 21.57 22.4s-8.64 22.4-21.57 22.4m0-7.94c7.17 0 11.9-5.76 11.9-14.46s-4.73-14.47-11.9-14.47-11.9 5.76-11.9 14.47c0 8.7 4.73 14.46 11.9 14.46"/></svg>
